<?xml version="1.0" encoding="UTF-8"?>
<map version="1.10" tiledversion="1.11.2" orientation="orthogonal" renderorder="right-down" width="30" height="15" tilewidth="70" tileheight="70" infinite="0" nextlayerid="10" nextobjectid="1">
 <tileset firstgid="1" name="tiles_spritesheet" tilewidth="70" tileheight="70" spacing="2" margin="2" tilecount="156" columns="12">
  <image source="../../Users/Дмитрий/Downloads/kenney_platformer-art-deluxe/Base pack/Tiles/tiles_spritesheet.png" width="914" height="936"/>
 </tileset>
 <layer id="3" name="Background" width="30" height="15">
  <data encoding="csv">
153,153,153,153,153,153,153,153,153,153,153,153,153,153,153,153,153,153,153,153,153,153,153,153,153,153,153,153,153,153,
153,153,153,153,153,153,153,153,153,153,153,153,153,153,153,153,153,153,153,153,153,153,153,153,153,153,153,153,153,153,
153,153,153,153,153,153,153,153,153,153,153,153,153,153,153,153,153,153,153,153,153,153,153,153,153,153,153,153,153,153,
153,153,153,153,153,153,153,153,153,153,153,153,153,153,153,153,153,153,153,153,153,153,153,153,153,153,153,153,153,153,
153,153,153,153,153,153,153,153,153,153,153,153,153,153,153,153,153,153,153,153,153,153,153,153,153,153,153,153,153,153,
153,153,153,153,153,153,153,153,153,153,153,153,153,153,153,153,153,153,153,153,153,153,153,153,153,153,153,153,153,153,
153,153,153,153,153,153,153,153,153,153,153,153,153,153,153,153,153,153,153,153,153,153,153,153,153,153,153,153,153,153,
153,153,153,153,153,153,153,153,153,153,153,153,153,153,153,153,153,153,153,153,153,153,153,153,153,153,153,153,153,153,
153,153,153,153,153,153,153,153,153,153,153,153,153,153,153,153,153,153,153,153,153,153,153,153,153,153,153,153,153,153,
153,153,153,153,153,153,153,153,153,153,153,153,153,153,153,153,153,153,153,153,153,153,153,153,153,153,153,153,153,153,
153,153,153,153,153,153,153,153,153,153,153,153,153,153,153,153,153,153,153,153,153,153,153,153,153,153,153,153,153,153,
153,153,153,153,153,153,153,153,153,153,153,153,153,153,153,153,153,153,153,153,153,153,153,153,153,153,153,153,153,153,
153,153,153,153,153,153,153,153,153,153,153,153,153,153,153,153,153,153,153,153,153,153,153,153,153,153,153,153,153,153,
153,153,153,153,153,153,153,153,153,153,153,153,153,153,153,153,153,153,153,153,153,153,153,153,153,153,153,153,153,153,
153,153,153,153,153,153,153,153,153,153,153,153,153,153,153,153,153,153,153,153,153,153,153,153,153,153,153,153,153,153
</data>
 </layer>
 <layer id="4" name="destructible" width="30" height="15" locked="1">
  <data encoding="csv">
0,0,0,0,0,0,0,0,0,0,0,0,0,0,0,0,0,0,0,0,0,0,0,0,0,0,0,0,0,0,
0,0,0,121,121,0,121,121,0,0,121,121,0,121,0,0,0,0,121,121,121,0,0,121,121,0,121,0,0,0,
0,0,0,0,0,0,0,0,121,0,0,0,121,0,0,0,0,0,0,0,0,0,0,0,0,0,0,0,0,0,
0,121,0,0,0,0,121,121,0,0,121,0,121,0,0,121,0,0,121,0,121,121,0,0,121,0,121,0,121,0,
0,0,0,121,0,0,0,0,121,0,0,0,0,0,0,0,0,0,121,0,0,0,0,0,121,0,0,0,121,0,
0,121,0,121,0,0,121,0,0,0,121,0,0,0,121,0,121,121,121,0,0,121,0,121,121,0,0,0,121,0,
0,121,0,0,0,0,121,0,121,0,121,0,0,121,121,0,121,0,121,0,0,0,0,0,0,0,121,0,121,0,
0,0,0,121,0,0,0,0,0,0,121,0,0,0,121,0,121,0,0,0,121,0,121,0,0,0,0,0,121,0,
0,0,0,121,0,0,0,0,121,0,121,0,0,0,0,0,0,0,0,0,0,0,121,0,0,0,0,0,121,0,
0,121,0,121,121,0,121,121,0,121,121,0,0,0,121,0,121,121,121,0,121,0,121,121,121,121,121,121,121,0,
0,121,0,0,0,0,0,0,0,0,0,0,0,0,0,0,0,0,0,0,0,0,0,0,0,0,0,0,121,0,
0,121,0,0,0,0,0,121,121,0,121,121,121,0,0,0,121,0,0,121,0,0,0,121,0,0,0,0,121,0,
0,0,0,0,0,0,121,0,0,0,121,0,0,0,0,0,0,0,0,0,0,0,0,0,0,0,0,0,0,0,
0,0,0,121,0,121,0,121,121,0,0,0,121,121,121,121,121,0,0,0,0,121,121,121,0,0,121,121,0,0,
0,0,0,0,111,0,0,0,0,0,0,0,0,0,0,0,0,0,0,0,0,0,0,0,0,0,0,0,0,0
</data>
 </layer>
 <layer id="5" name="Indestructible" width="30" height="15">
  <data encoding="csv">
50,50,50,50,50,50,50,50,50,50,50,50,50,50,50,50,50,50,50,50,50,50,50,50,50,50,50,50,50,50,
50,0,0,0,0,0,0,0,0,3221225522,0,0,0,0,0,0,0,3221225522,0,0,0,0,0,0,0,0,0,0,0,50,
50,0,2147483698,0,2147483698,3221225522,0,3221225522,0,3221225522,0,3221225522,0,3221225522,0,3221225522,3221225522,3221225522,0,3221225522,0,3221225522,3221225522,3221225522,0,3221225522,0,50,0,50,
50,0,0,0,3221225522,0,0,0,0,0,0,0,0,0,0,0,0,0,0,0,0,0,0,0,0,0,0,0,0,50,
50,0,50,0,3221225522,3221225522,0,3221225522,0,3221225522,0,3221225522,3221225522,3221225522,0,3221225522,0,3221225522,0,3221225522,0,3221225522,0,3221225522,0,3221225522,0,50,0,50,
50,0,3221225522,0,0,0,0,0,0,0,0,0,0,0,0,0,0,0,0,0,0,0,0,0,0,0,0,3221225522,0,50,
50,0,50,0,3221225522,3221225522,0,3221225522,0,3221225522,0,3221225522,3221225522,3221225522,0,3221225522,0,3221225522,0,3221225522,0,3221225522,0,3221225522,3221225522,3221225522,0,50,0,50,
50,3221225522,3221225522,0,3221225522,0,0,0,0,0,0,0,3221225522,0,0,0,0,0,3221225522,0,0,0,0,0,0,0,0,3221225522,0,50,
50,0,50,0,3221225522,3221225522,0,3221225522,0,3221225522,0,3221225522,0,3221225522,0,3221225522,0,3221225522,0,3221225522,0,3221225522,0,3221225522,0,3221225522,0,50,0,50,
50,0,3221225522,0,0,0,0,0,0,0,0,0,0,0,0,0,0,0,0,0,0,0,0,0,0,0,0,0,0,50,
50,0,50,0,3221225522,3221225522,0,3221225522,0,3221225522,0,3221225522,0,3221225522,3221225522,3221225522,0,3221225522,0,3221225522,0,3221225522,0,3221225522,0,3221225522,0,50,0,50,
50,0,0,0,3221225522,3221225522,0,0,0,3221225522,0,0,0,0,3221225522,0,0,0,3221225522,0,0,0,0,0,0,0,0,0,0,50,
50,0,50,0,3221225522,0,0,3221225522,0,3221225522,0,3221225522,0,3221225522,0,3221225522,0,3221225522,0,3221225522,3221225522,3221225522,0,3221225522,3221225522,3221225522,0,50,0,50,
50,0,0,0,0,0,0,0,0,3221225522,0,0,0,0,0,0,0,0,0,0,3221225522,0,0,0,0,0,0,0,0,50,
50,50,50,50,50,50,50,50,50,50,50,50,50,50,50,50,50,50,50,50,50,50,50,50,50,50,50,50,50,50
</data>
 </layer>
 <layer id="9" name="Destroy" width="30" height="15" visible="0">
  <data encoding="csv">
0,0,0,0,0,0,0,0,0,0,0,0,0,0,0,0,0,0,0,0,0,0,0,0,0,0,0,0,0,0,
0,0,0,145,145,0,145,145,0,0,145,145,0,145,0,0,0,0,145,145,145,0,0,145,145,0,145,0,0,0,
0,0,0,0,0,0,0,0,145,0,0,0,145,0,0,0,0,0,0,0,0,0,0,0,0,0,0,0,0,0,
0,145,0,0,0,0,145,145,0,0,145,0,145,0,0,145,0,0,145,0,145,145,0,0,145,0,145,0,145,0,
0,0,0,145,0,0,0,0,145,0,0,0,0,0,0,0,0,0,145,0,0,0,0,0,145,0,0,0,145,0,
0,145,0,145,0,0,145,0,0,0,145,0,0,0,145,0,145,145,145,0,0,145,0,145,145,0,0,0,145,0,
0,145,0,0,0,0,145,0,145,0,145,0,0,0,145,0,145,0,145,0,0,0,0,0,0,0,145,0,145,0,
0,0,0,145,0,0,0,0,0,0,145,0,0,0,145,0,145,0,0,0,145,0,145,0,0,0,0,0,145,0,
0,0,0,145,0,0,0,0,145,0,145,0,0,0,0,0,0,0,0,0,0,0,145,0,0,0,0,0,145,0,
0,145,0,145,145,0,145,145,0,145,145,0,0,0,145,0,145,145,145,0,145,0,145,145,145,145,145,145,145,0,
0,145,0,0,0,0,0,0,0,0,0,0,0,0,0,0,0,0,0,0,0,0,0,0,0,0,0,0,145,0,
0,145,0,0,0,0,0,145,145,0,145,145,145,0,0,0,145,0,0,145,0,0,0,145,0,0,0,0,145,0,
0,0,0,0,0,0,145,0,0,0,145,0,0,0,0,0,0,0,0,0,0,0,0,0,0,0,0,0,0,0,
0,0,0,145,0,145,0,145,145,0,0,0,145,145,145,145,145,0,0,0,0,145,145,145,0,0,145,145,0,0,
0,0,0,0,0,0,0,0,0,0,0,0,0,0,0,0,0,0,0,0,0,0,0,0,0,0,0,0,0,0
</data>
 </layer>
 <layer id="8" name="Colision" width="30" height="15" visible="0">
  <data encoding="csv">
25,25,25,25,25,25,25,25,25,25,25,25,25,25,25,25,25,25,25,25,25,25,25,25,25,25,25,25,25,25,
25,0,0,0,0,0,0,0,0,25,0,0,0,0,0,0,0,25,0,0,0,0,0,0,0,0,0,0,0,25,
25,0,25,0,25,25,0,25,0,25,0,25,0,25,0,25,25,25,0,25,0,25,25,25,0,25,0,25,0,25,
25,0,0,0,25,0,0,0,0,0,0,0,0,0,0,0,0,0,0,0,0,0,0,0,0,0,0,0,0,25,
25,0,25,0,25,25,0,25,0,25,0,25,25,25,0,25,0,25,0,25,0,25,0,25,0,25,0,25,0,25,
25,0,25,0,0,0,0,0,0,0,0,0,0,0,0,0,0,0,0,0,0,0,0,0,0,0,0,25,0,25,
25,0,25,0,25,25,0,25,0,25,0,25,25,0,0,25,0,25,0,25,0,25,0,25,25,25,0,25,0,25,
25,25,25,0,25,0,0,0,0,0,0,0,25,0,0,0,0,0,25,0,0,0,0,0,0,0,0,25,0,25,
25,0,25,0,25,25,0,25,0,25,0,25,0,25,0,25,0,25,0,25,0,25,0,25,0,25,0,25,0,25,
25,0,25,0,0,0,0,0,0,0,0,0,0,0,0,0,0,0,0,0,0,0,0,0,0,0,0,0,0,25,
25,0,25,0,25,25,0,25,0,25,0,25,0,25,25,25,0,25,0,25,0,25,0,25,0,25,0,25,0,25,
25,0,0,0,25,25,0,0,0,25,0,0,0,0,25,0,0,0,25,0,0,0,0,0,0,0,0,0,0,25,
25,0,25,0,25,0,0,25,0,25,0,25,0,25,0,25,0,25,0,25,25,25,0,25,25,25,0,25,0,25,
25,0,0,0,0,0,0,0,0,25,0,0,0,0,0,0,0,0,0,0,25,0,0,0,0,0,0,0,0,25,
25,25,25,25,25,25,25,25,25,25,25,25,25,25,25,25,25,25,25,25,25,25,25,25,25,25,25,25,25,25
</data>
 </layer>
</map>
